X:1
T: Lassies Look before you
C:
R:Strathspey
Q: 128
K:D
M:4/4
L:1/16
|:F2|D3A F3A D3A F3A|E=c3 c3G E4 =C3E|D3A F3A D3A F3A|Dd3 d3A G3F E2F2|
D3A F3A D3A F3A|E=c3 c3G E4 =C3E|D3A F3A D3A F3A|Dd3 d3A G3F E2f2|
d3f A3f d3f A3f|=c3d e3f g4 agfe|d3f A3f d3f A3f|d3e f3d a4 bagf|
d3f A3f d3f A3f|=c3d e3f g4 ((3e2f2g2) |a3f g3e f3d e3c|d3B A3G G3F E2:|
